X: 113
T: Polonäs, sexdregasamlingen del 1 nr 113
B: Sexdregasamlingen del 1 nr 113
O: Sexdrega, Västergötland
R: Slängpolska
S: efter Johannes Bryngelsson
Z: 2008-05-31 av Nils L
M: 3/4
L: 1/16
K: Gm
B2Bd g2gb a2g2 | ^f2g2 agf=e d4  | e2dc  d2cB c2BA | cBAG ^F4 D4 |
d2ed B2d2 c2B2 | cdcB A2c2 B2A2  | B2d2  g2d2 c2B2 | A2G^F G4 G,4 ::
B2Bc d2cd edcB | f2fg b2ba gfed  | b2ba  g2gf e2ed | c2BA B4 B,4 |
dcdB cBcA B2G2 | cdcB ABAG ^F2D2 | G^FGA BABc Bcde | D2G^F G4 G,4 :|

